Newaita-dark/.DP/22/rhythmbox-playing.svg

<svg xmlns="http://www.w3.org/2000/svg" xmlns:xlink="http://www.w3.org/1999/xlink" width="22px" height="22px" viewBox="0 0 22 22" version="1.1">
<g id="surface1">
<path style=" stroke:none;fill-rule:nonzero;fill:rgb(93.333334%,93.333334%,93.333334%);fill-opacity:1;" d="M 10.914062 2.898438 C 9.140625 2.898438 7.503906 3.460938 6.167969 4.410156 L 5.769531 4.011719 C 5.5 3.746094 5.15625 3.609375 4.804688 3.609375 C 4.457031 3.609375 4.105469 3.746094 3.839844 4.011719 C 3.304688 4.546875 3.304688 5.40625 3.839844 5.941406 L 4.238281 6.339844 C 3.289062 7.675781 2.726562 9.3125 2.726562 11.085938 C 2.726562 12.859375 3.289062 14.5 4.238281 15.835938 L 3.839844 16.234375 C 3.304688 16.765625 3.304688 17.628906 3.839844 18.160156 C 4.375 18.695312 5.234375 18.695312 5.769531 18.160156 L 6.167969 17.765625 C 7.503906 18.714844 9.140625 19.273438 10.914062 19.273438 C 12.6875 19.273438 14.328125 18.714844 15.664062 17.765625 L 16.0625 18.160156 C 16.59375 18.695312 17.457031 18.695312 17.988281 18.160156 C 18.523438 17.628906 18.523438 16.765625 17.988281 16.234375 L 17.59375 15.835938 C 18.542969 14.5 19.101562 12.859375 19.101562 11.085938 C 19.101562 9.3125 18.542969 7.675781 17.59375 6.339844 L 17.988281 5.941406 C 18.523438 5.40625 18.523438 4.546875 17.988281 4.011719 C 17.722656 3.746094 17.375 3.609375 17.023438 3.609375 C 16.675781 3.609375 16.328125 3.746094 16.0625 4.011719 L 15.664062 4.410156 C 14.328125 3.460938 12.6875 2.898438 10.914062 2.898438 Z M 17.265625 4.28125 C 17.382812 4.28125 17.5 4.324219 17.589844 4.414062 C 17.765625 4.59375 17.765625 4.878906 17.589844 5.058594 C 17.410156 5.234375 17.125 5.234375 16.945312 5.058594 C 16.765625 4.878906 16.765625 4.59375 16.945312 4.414062 C 17.035156 4.324219 17.148438 4.28125 17.265625 4.28125 Z M 4.5625 4.28125 C 4.679688 4.28125 4.796875 4.324219 4.886719 4.414062 C 5.0625 4.59375 5.0625 4.878906 4.886719 5.058594 C 4.707031 5.234375 4.421875 5.234375 4.242188 5.058594 C 4.0625 4.878906 4.0625 4.59375 4.242188 4.414062 C 4.332031 4.324219 4.445312 4.28125 4.5625 4.28125 Z M 10.914062 4.71875 C 14.441406 4.71875 17.28125 7.558594 17.28125 11.085938 C 17.28125 14.613281 14.441406 17.453125 10.914062 17.453125 C 7.386719 17.453125 4.546875 14.613281 4.546875 11.085938 C 4.546875 7.558594 7.386719 4.71875 10.914062 4.71875 Z M 4.5625 16.984375 C 4.679688 16.984375 4.796875 17.027344 4.886719 17.117188 C 5.0625 17.296875 5.0625 17.582031 4.886719 17.761719 C 4.707031 17.9375 4.421875 17.9375 4.242188 17.761719 C 4.0625 17.582031 4.0625 17.296875 4.242188 17.117188 C 4.332031 17.027344 4.445312 16.984375 4.5625 16.984375 Z M 17.265625 16.984375 C 17.382812 16.984375 17.5 17.027344 17.589844 17.117188 C 17.765625 17.296875 17.765625 17.582031 17.589844 17.761719 C 17.410156 17.9375 17.125 17.9375 16.945312 17.761719 C 16.765625 17.582031 16.765625 17.296875 16.945312 17.117188 C 17.035156 17.027344 17.148438 16.984375 17.265625 16.984375 Z M 17.265625 16.984375 "/>
<path style=" stroke:none;fill-rule:nonzero;fill:rgb(93.333334%,93.333334%,93.333334%);fill-opacity:1;" d="M 9.09375 7.457031 C 8.582031 7.433594 8.15625 7.84375 8.15625 8.359375 L 8.15625 13.816406 C 8.15625 14.519531 8.921875 14.949219 9.523438 14.589844 L 14.070312 11.859375 C 14.65625 11.511719 14.65625 10.664062 14.070312 10.3125 L 9.523438 7.585938 C 9.394531 7.507812 9.246094 7.460938 9.09375 7.457031 Z M 9.09375 7.457031 "/>
</g>
</svg>

<svg xmlns="http://www.w3.org/2000/svg" width="22" height="22"><g fill="#bdbdbd"><path d="M10.914 2.902c-1.773 0-3.41.555-4.746 1.508l-.398-.398a1.368 1.368 0 0 0-.965-.403c-.348 0-.7.137-.965.403a1.36 1.36 0 0 0 0 1.93l.398.398a8.134 8.134 0 0 0-1.508 4.746c0 1.773.555 3.41 1.508 4.75l-.398.394a1.36 1.36 0 0 0 0 1.93 1.36 1.36 0 0 0 1.93 0l.398-.394a8.162 8.162 0 0 0 4.746 1.507c1.774 0 3.41-.558 4.75-1.507l.395.394a1.36 1.36 0 0 0 1.93 0 1.36 1.36 0 0 0 0-1.93l-.395-.394a8.183 8.183 0 0 0 1.508-4.75c0-1.774-.559-3.41-1.508-4.746l.394-.399a1.36 1.36 0 0 0 0-1.93 1.361 1.361 0 0 0-.965-.402c-.347 0-.695.137-.964.403l-.395.398a8.155 8.155 0 0 0-4.75-1.508zm6.352 1.38a.455.455 0 1 1-.32.777.453.453 0 0 1 0-.645.446.446 0 0 1 .32-.133zm-12.703 0a.455.455 0 1 1-.32.777.453.453 0 0 1 0-.645.453.453 0 0 1 .32-.133zm6.351.437a6.353 6.353 0 0 1 6.367 6.367 6.353 6.353 0 0 1-6.367 6.367 6.353 6.353 0 0 1-6.367-6.367 6.353 6.353 0 0 1 6.367-6.367zM4.563 16.984a.455.455 0 1 1-.32.778.453.453 0 0 1 0-.645.453.453 0 0 1 .32-.133zm12.703 0a.455.455 0 1 1-.32.778.453.453 0 0 1 0-.645.446.446 0 0 1 .32-.133zm0 0"/><path d="M9.098 7.457a.902.902 0 0 0-.942.902v5.457c0 .7.766 1.133 1.367.774l4.547-2.73a.9.9 0 0 0 0-1.547L9.523 7.585a.875.875 0 0 0-.425-.129zm0 0"/></g></svg>
